;FLAVOR:Marlin
;TIME:1082
;Filament used: 0.866044m
;Layer height: 0.28
;MINX:130.38
;MINY:135.86
;MINZ:0.28
;MAXX:169.62
;MAXY:164.14
;MAXZ:24.92
;TARGET_MACHINE.NAME:Artillery Sidewinder X1
;Generated with Cura_SteamEngine 5.6.0
M140 S60
M105
M190 S60
M104 S200
M105
M109 S200
M82 ;absolute extrusion mode
G28 ; home all axes
 M117 Purge extruder
 G92 E0 ; reset extruder
 G1 Z1.0 F3000 ; move z up little to prevent scratching of surface
 G1 X2 Y20 Z0.3 F5000.0 ; move to start-line position
 G1 X2 Y200.0 Z0.3 F1500.0 E15 ; draw 1st line
 G1 X2 Y200.0 Z0.4 F5000.0 ; move to side a little
 G1 X2 Y20 Z0.4 F1500.0 E30 ; draw 2nd line
 G92 E0 ; reset extruder
 G1 Z1.0 F3000 ; move z up little to prevent scratching of surface
G92 E0
G92 E0
G1 F1500 E-2
;LAYER_COUNT:89
;LAYER:0
M107
G0 F6000 X133.385 Y137.616 Z0.28
;TYPE:SKIRT
G1 F1500 E0
G1 F1200 X135.157 Y136.551 E0.10589
G1 X137.257 Y135.86 E0.21913
G1 X162.38 Y135.86 E1.50595
G1 X164.196 Y136.319 E1.60189
G1 X165.265 Y136.726 E1.66048
G1 X166.913 Y137.959 E1.7659
G1 X167.864 Y138.865 E1.83318
G1 X168.929 Y140.637 E1.93907
G1 X169.62 Y142.737 E2.05231
G1 X169.62 Y156.9 E2.77775
G1 X169.161 Y158.716 E2.87369
G1 X168.754 Y159.785 E2.93228
G1 X167.521 Y161.433 E3.0377
G1 X166.615 Y162.384 E3.10498
G1 X164.843 Y163.449 E3.21087
G1 X162.743 Y164.14 E3.32411
G1 X137.62 Y164.14 E4.61092
G1 X135.804 Y163.681 E4.70686
G1 X134.735 Y163.274 E4.76545
G1 X133.087 Y162.041 E4.87088
G1 X132.136 Y161.135 E4.93815
G1 X131.071 Y159.363 E5.04405
G1 X130.38 Y157.263 E5.15728
G1 X130.38 Y143.1 E5.88272
G1 X130.839 Y141.284 E5.97866
G1 X131.246 Y140.215 E6.03725
G1 X132.479 Y138.567 E6.14267
G1 X133.385 Y137.616 E6.20995
G0 F6000 X133.665 Y137.961
G1 F1200 X135.342 Y136.953 E6.31017
G1 X137.327 Y136.3 E6.4172
G1 X162.323 Y136.3 E7.69752
G1 X164.088 Y136.746 E7.79076
G1 X165.051 Y137.116 E7.8436
G1 X166.609 Y138.278 E7.94315
G1 X167.519 Y139.145 E8.00753
G1 X168.527 Y140.822 E8.10775
G1 X169.18 Y142.807 E8.21479
G1 X169.18 Y156.843 E8.93372
G1 X168.734 Y158.608 E9.02696
G1 X168.364 Y159.571 E9.07981
G1 X167.202 Y161.129 E9.17936
G1 X166.335 Y162.039 E9.24374
G1 X164.658 Y163.047 E9.34396
G1 X162.673 Y163.7 E9.45099
G1 X137.677 Y163.7 E10.7313
G1 X135.912 Y163.254 E10.82455
G1 X134.949 Y162.884 E10.87739
G1 X133.391 Y161.722 E10.97694
G1 X132.481 Y160.855 E11.04132
G1 X131.473 Y159.178 E11.14154
G1 X130.82 Y157.193 E11.24857
G1 X130.82 Y143.157 E11.9675
G1 X131.266 Y141.392 E12.06075
G1 X131.636 Y140.429 E12.11359
G1 X132.798 Y138.871 E12.21314
G1 X133.665 Y137.961 E12.27752
G0 F6000 X133.942 Y138.308
G1 F1200 X135.526 Y137.356 E12.37218
G1 X137.398 Y136.74 E12.47313
G1 X162.266 Y136.74 E13.74688
G1 X163.98 Y137.173 E13.83743
G1 X164.837 Y137.505 E13.8845
G1 X166.306 Y138.597 E13.97826
G1 X167.172 Y139.422 E14.03952
G1 X168.124 Y141.006 E14.13418
G1 X168.74 Y142.878 E14.23512
G1 X168.74 Y156.786 E14.9475
G1 X168.307 Y158.5 E15.03805
G1 X167.975 Y159.357 E15.08513
G1 X166.883 Y160.826 E15.17888
G1 X166.058 Y161.692 E15.24014
G1 X164.474 Y162.644 E15.3348
G1 X162.602 Y163.26 E15.43575
G1 X137.734 Y163.26 E16.7095
G1 X136.02 Y162.827 E16.80005
G1 X135.163 Y162.495 E16.84713
G1 X133.694 Y161.403 E16.94088
G1 X132.828 Y160.578 E17.00214
G1 X131.876 Y158.994 E17.0968
G1 X131.26 Y157.122 E17.19775
G1 X131.26 Y143.214 E17.91012
G1 X131.693 Y141.5 E18.00067
G1 X132.025 Y140.643 E18.04775
G1 X133.117 Y139.174 E18.1415
G1 X133.942 Y138.308 E18.20277
G0 F6000 X134.222 Y138.653
G1 F1200 X135.711 Y137.758 E18.29175
G1 X137.468 Y137.18 E18.38649
G1 X162.209 Y137.18 E19.65374
G1 X163.872 Y137.6 E19.74159
G1 X164.621 Y137.893 E19.78279
G1 X166.002 Y138.916 E19.87082
G1 X166.827 Y139.702 E19.92918
G1 X167.722 Y141.191 E20.01817
G1 X168.3 Y142.948 E20.11291
G1 X168.3 Y156.729 E20.81878
G1 X167.88 Y158.392 E20.90663
G1 X167.587 Y159.141 E20.94783
G1 X166.564 Y160.522 E21.03586
G1 X165.778 Y161.347 E21.09422
G1 X164.289 Y162.242 E21.18321
G1 X162.532 Y162.82 E21.27795
G1 X137.791 Y162.82 E22.54519
G1 X136.128 Y162.4 E22.63305
G1 X135.379 Y162.107 E22.67424
G1 X133.998 Y161.084 E22.76227
G1 X133.173 Y160.298 E22.82064
G1 X132.278 Y158.809 E22.90962
G1 X131.7 Y157.052 E23.00436
G1 X131.7 Y143.271 E23.71023
G1 X132.12 Y141.608 E23.79809
G1 X132.413 Y140.859 E23.83928
G1 X133.436 Y139.478 E23.92731
G1 X134.222 Y138.653 E23.98568
G0 F6000 X134.499 Y139
G1 F1200 X135.895 Y138.161 E24.0691
G1 X137.539 Y137.62 E24.15775
G1 X162.153 Y137.62 E25.41849
G1 X163.712 Y138.01 E25.50081
G1 X164.407 Y138.282 E25.53904
G1 X165.699 Y139.235 E25.62127
G1 X166.48 Y139.979 E25.67652
G1 X167.319 Y141.375 E25.75994
G1 X167.86 Y143.019 E25.84859
G1 X167.86 Y156.673 E26.54796
G1 X167.47 Y158.232 E26.63027
G1 X167.198 Y158.927 E26.6685
G1 X166.245 Y160.219 E26.75073
G1 X165.501 Y161 E26.80598
G1 X164.105 Y161.839 E26.8894
G1 X162.461 Y162.38 E26.97805
G1 X137.847 Y162.38 E28.2388
G1 X136.288 Y161.99 E28.32111
G1 X135.593 Y161.718 E28.35934
G1 X134.301 Y160.765 E28.44157
G1 X133.52 Y160.021 E28.49682
G1 X132.681 Y158.625 E28.58024
G1 X132.14 Y156.981 E28.66889
G1 X132.14 Y143.327 E29.36826
G1 X132.53 Y141.768 E29.45057
G1 X132.802 Y141.073 E29.4888
G1 X133.755 Y139.781 E29.57103
G1 X134.499 Y139 E29.62628
G0 F6000 X134.779 Y139.345
G1 F1200 X136.08 Y138.563 E29.70403
G1 X137.609 Y138.06 E29.78648
G1 X162.099 Y138.06 E31.04087
G1 X163.552 Y138.42 E31.11754
G1 X164.194 Y138.671 E31.15285
G1 X165.395 Y139.554 E31.2292
G1 X166.135 Y140.259 E31.28155
G1 X166.917 Y141.56 E31.3593
G1 X167.42 Y143.089 E31.44175
G1 X167.42 Y156.619 E32.13476
G1 X167.06 Y158.072 E32.21144
G1 X166.809 Y158.714 E32.24674
G1 X165.926 Y159.915 E32.3231
G1 X165.221 Y160.655 E32.37545
G1 X163.92 Y161.437 E32.4532
G1 X162.391 Y161.94 E32.53564
G1 X137.901 Y161.94 E33.79004
G1 X136.448 Y161.58 E33.86671
G1 X135.806 Y161.329 E33.90202
G1 X134.605 Y160.446 E33.97837
G1 X133.865 Y159.741 E34.03072
G1 X133.083 Y158.44 E34.10847
G1 X132.58 Y156.911 E34.19092
G1 X132.58 Y143.381 E34.88393
G1 X132.94 Y141.928 E34.9606
G1 X133.191 Y141.286 E34.99591
G1 X134.074 Y140.085 E35.07227
G1 X134.779 Y139.345 E35.12462
G0 F6000 X135.059 Y139.69
G1 F1200 X136.265 Y138.965 E35.19669
G1 X137.679 Y138.5 E35.27293
G1 X162.046 Y138.5 E36.52103
G1 X163.392 Y138.83 E36.59201
G1 X163.98 Y139.06 E36.62435
G1 X165.091 Y139.873 E36.69486
G1 X165.79 Y140.539 E36.74432
G1 X166.515 Y141.745 E36.81639
G1 X166.98 Y143.159 E36.89263
G1 X166.98 Y156.566 E37.57935
G1 X166.65 Y157.912 E37.65033
G1 X166.42 Y158.5 E37.68267
G1 X165.607 Y159.611 E37.75319
G1 X164.941 Y160.31 E37.80264
G1 X163.735 Y161.035 E37.87472
G1 X162.321 Y161.5 E37.95096
G1 X137.954 Y161.5 E39.19905
G1 X136.608 Y161.17 E39.27004
G1 X136.02 Y160.94 E39.30237
G1 X134.909 Y160.127 E39.37289
G1 X134.21 Y159.461 E39.42234
G1 X133.485 Y158.255 E39.49442
G1 X133.02 Y156.841 E39.57066
G1 X133.02 Y143.434 E40.25737
G1 X133.35 Y142.088 E40.32836
G1 X133.58 Y141.5 E40.3607
G1 X134.393 Y140.389 E40.43121
G1 X135.059 Y139.69 E40.48067
G0 F6000 X135.339 Y140.035
G1 F1200 X136.449 Y139.368 E40.547
G1 X137.75 Y138.94 E40.61715
G1 X161.992 Y138.94 E41.85884
G1 X163.232 Y139.24 E41.92418
G1 X163.766 Y139.449 E41.95356
G1 X164.787 Y140.192 E42.01823
G1 X165.445 Y140.819 E42.06479
G1 X166.112 Y141.929 E42.13112
G1 X166.54 Y143.23 E42.20127
G1 X166.54 Y156.512 E42.88158
G1 X166.24 Y157.752 E42.94693
G1 X166.031 Y158.286 E42.9763
G1 X165.288 Y159.307 E43.04098
G1 X164.661 Y159.965 E43.08753
G1 X163.551 Y160.632 E43.15386
G1 X162.25 Y161.06 E43.22401
G1 X138.008 Y161.06 E44.4657
G1 X136.768 Y160.76 E44.53105
G1 X136.234 Y160.551 E44.56042
G1 X135.213 Y159.808 E44.6251
G1 X134.555 Y159.181 E44.67165
G1 X133.888 Y158.071 E44.73798
G1 X133.46 Y156.77 E44.80813
G1 X133.46 Y143.488 E45.48845
G1 X133.76 Y142.248 E45.55379
G1 X133.969 Y141.714 E45.58316
G1 X134.712 Y140.693 E45.64784
G1 X135.339 Y140.035 E45.6944
G0 F6000 X135.616 Y140.382
G1 F1200 X136.634 Y139.77 E45.75524
G1 X137.82 Y139.38 E45.81918
G1 X161.94 Y139.38 E47.05463
G1 X163.071 Y139.65 E47.11418
G1 X163.553 Y139.839 E47.1407
G1 X164.528 Y140.548 E47.20245
G1 X165.098 Y141.096 E47.24295
G1 X165.71 Y142.114 E47.30379
G1 X166.1 Y143.3 E47.36774
G1 X166.1 Y156.46 E48.0418
G1 X165.83 Y157.591 E48.10136
G1 X165.641 Y158.073 E48.12788
G1 X164.932 Y159.048 E48.18963
G1 X164.384 Y159.618 E48.23013
G1 X163.366 Y160.23 E48.29097
G1 X162.18 Y160.62 E48.35491
G1 X138.06 Y160.62 E49.59035
G1 X136.929 Y160.35 E49.64991
G1 X136.447 Y160.161 E49.67643
G1 X135.472 Y159.452 E49.73818
G1 X134.902 Y158.904 E49.77868
G1 X134.29 Y157.886 E49.83952
G1 X133.9 Y156.7 E49.90347
G1 X133.9 Y143.54 E50.57753
G1 X134.17 Y142.409 E50.63709
G1 X134.359 Y141.927 E50.66361
G1 X135.068 Y140.952 E50.72536
G1 X135.616 Y140.382 E50.76586
G0 F6000 X135.892 Y140.73
G1 F1200 X136.818 Y140.173 E50.8212
G1 X137.891 Y139.82 E50.87906
G1 X161.889 Y139.82 E52.10825
G1 X162.91 Y140.06 E52.16198
G1 X163.34 Y140.229 E52.18564
G1 X164.269 Y140.904 E52.24446
G1 X164.75 Y141.372 E52.27883
G1 X165.307 Y142.298 E52.33418
G1 X165.66 Y143.371 E52.39204
G1 X165.66 Y156.409 E53.05986
G1 X165.42 Y157.43 E53.11358
G1 X165.251 Y157.86 E53.13724
G1 X164.576 Y158.789 E53.19606
G1 X164.108 Y159.27 E53.23043
G1 X163.182 Y159.827 E53.28578
G1 X162.109 Y160.18 E53.34364
G1 X138.111 Y160.18 E54.57283
G1 X137.09 Y159.94 E54.62656
G1 X136.66 Y159.771 E54.65022
G1 X135.731 Y159.096 E54.70904
G1 X135.25 Y158.628 E54.74341
G1 X134.693 Y157.702 E54.79876
G1 X134.34 Y156.629 E54.85662
G1 X134.34 Y143.591 E55.52443
G1 X134.58 Y142.57 E55.57816
G1 X134.749 Y142.14 E55.60182
G1 X135.424 Y141.211 E55.66064
G1 X135.892 Y140.73 E55.69501
G0 F6000 X136.167 Y141.078
G1 F1200 X137.003 Y140.575 E55.74499
G1 X137.961 Y140.26 E55.79664
G1 X161.837 Y140.26 E57.01958
G1 X162.749 Y140.47 E57.06752
G1 X163.129 Y140.619 E57.08843
G1 X163.962 Y141.219 E57.14101
G1 X164.402 Y141.647 E57.17245
G1 X164.905 Y142.483 E57.22242
G1 X165.22 Y143.441 E57.27408
G1 X165.22 Y156.357 E57.93564
G1 X165.01 Y157.269 E57.98358
G1 X164.861 Y157.649 E58.00449
G1 X164.261 Y158.482 E58.05707
G1 X163.833 Y158.922 E58.08851
G1 X162.997 Y159.425 E58.13848
G1 X162.039 Y159.74 E58.19014
G1 X138.163 Y159.74 E59.41308
G1 X137.251 Y159.53 E59.46101
G1 X136.871 Y159.381 E59.48192
G1 X136.038 Y158.781 E59.5345
G1 X135.598 Y158.353 E59.56594
G1 X135.095 Y157.517 E59.61592
G1 X134.78 Y156.559 E59.66757
G1 X134.78 Y143.643 E60.32914
G1 X134.99 Y142.731 E60.37707
G1 X135.139 Y142.351 E60.39798
G1 X135.739 Y141.518 E60.45056
G1 X136.167 Y141.078 E60.482
G0 F6000 X136.442 Y141.426
G1 F1200 X136.054 Y141.825 E60.51051
G1 X135.529 Y142.562 E60.55686
G1 X135.419 Y142.83 E60.5717
G1 X135.22 Y143.694 E60.61711
G1 X135.22 Y156.488 E61.27243
G1 X135.498 Y157.333 E61.31799
G1 X135.946 Y158.078 E61.36252
G1 X136.345 Y158.466 E61.39102
G1 X137.082 Y158.991 E61.43737
G1 X137.35 Y159.101 E61.45221
G1 X138.214 Y159.3 E61.49762
G1 X161.968 Y159.3 E62.71432
G1 X162.813 Y159.022 E62.75988
G1 X163.558 Y158.574 E62.80441
G1 X163.946 Y158.175 E62.83292
G1 X164.471 Y157.438 E62.87926
G1 X164.581 Y157.17 E62.8941
G1 X164.78 Y156.306 E62.93952
G1 X164.78 Y143.512 E63.59483
G1 X164.502 Y142.667 E63.6404
G1 X164.054 Y141.922 E63.68492
G1 X163.655 Y141.534 E63.71343
G1 X162.918 Y141.009 E63.75978
G1 X162.65 Y140.899 E63.77462
G1 X161.786 Y140.7 E63.82003
G1 X138.032 Y140.7 E65.03672
G1 X137.187 Y140.978 E65.08229
G1 X136.442 Y141.426 E65.12681
G0 F6000 X136.717 Y141.774
G1 F1200 X136.412 Y142.081 E65.14898
G1 X135.917 Y142.775 E65.19264
G1 X135.848 Y142.929 E65.20129
G1 X135.66 Y143.745 E65.24418
G1 X135.66 Y156.418 E65.8933
G1 X135.9 Y157.148 E65.93266
G1 X136.294 Y157.803 E65.97181
G1 X136.601 Y158.108 E65.99397
G1 X137.295 Y158.603 E66.03764
G1 X137.449 Y158.672 E66.04628
G1 X138.265 Y158.86 E66.08917
G1 X161.898 Y158.86 E67.29967
G1 X162.628 Y158.62 E67.33903
G1 X163.283 Y158.226 E67.37818
G1 X163.588 Y157.919 E67.40034
G1 X164.083 Y157.225 E67.44401
G1 X164.152 Y157.071 E67.45265
G1 X164.34 Y156.255 E67.49554
G1 X164.34 Y143.582 E68.14466
G1 X164.1 Y142.852 E68.18402
G1 X163.706 Y142.197 E68.22317
G1 X163.399 Y141.892 E68.24534
G1 X162.705 Y141.397 E68.289
G1 X162.551 Y141.328 E68.29764
G1 X161.735 Y141.14 E68.34054
G1 X138.102 Y141.14 E69.55103
G1 X137.372 Y141.38 E69.59039
G1 X136.717 Y141.774 E69.62954
G0 F6000 X136.99 Y142.123
G1 F1200 X137.557 Y141.782 E69.66343
G1 X138.172 Y141.58 E69.69659
G1 X161.684 Y141.58 E70.90089
G1 X162.452 Y141.757 E70.94126
G1 X163.089 Y142.204 E70.98112
G1 X163.357 Y142.47 E71.00046
G1 X163.698 Y143.037 E71.03435
G1 X163.9 Y143.652 E71.0675
G1 X163.9 Y156.204 E71.71042
G1 X163.723 Y156.972 E71.75079
G1 X163.276 Y157.609 E71.79065
G1 X163.01 Y157.877 E71.80999
G1 X162.443 Y158.218 E71.84388
G1 X161.828 Y158.42 E71.87704
G1 X138.316 Y158.42 E73.08134
G1 X137.548 Y158.243 E73.12171
G1 X136.911 Y157.796 E73.16157
G1 X136.643 Y157.53 E73.18091
G1 X136.302 Y156.963 E73.2148
G1 X136.1 Y156.348 E73.24795
G1 X136.1 Y143.796 E73.89087
G1 X136.277 Y143.028 E73.93124
G1 X136.724 Y142.391 E73.9711
G1 X136.99 Y142.123 E73.99044
G0 F6000 X137.263 Y142.472
G1 F1200 X137.036 Y142.701 E74.00696
G1 X136.687 Y143.208 E74.03848
G1 X136.54 Y143.847 E74.07207
G1 X136.54 Y156.278 E74.70879
G1 X136.704 Y156.778 E74.73575
G1 X136.992 Y157.257 E74.76437
G1 X137.221 Y157.484 E74.78089
G1 X137.728 Y157.833 E74.81242
G1 X138.367 Y157.98 E74.846
G1 X161.758 Y157.98 E76.0441
G1 X162.258 Y157.816 E76.07105
G1 X162.737 Y157.528 E76.09968
G1 X162.964 Y157.299 E76.1162
G1 X163.313 Y156.792 E76.14773
G1 X163.46 Y156.153 E76.18131
G1 X163.46 Y143.722 E76.81803
G1 X163.296 Y143.222 E76.84499
G1 X163.008 Y142.743 E76.87361
G1 X162.779 Y142.516 E76.89013
G1 X162.272 Y142.167 E76.92166
G1 X161.633 Y142.02 E76.95524
G1 X138.242 Y142.02 E78.15334
G1 X137.742 Y142.184 E78.1803
G1 X137.263 Y142.472 E78.20892
G0 F6000 X137.398 Y142.95
G1 F1200 X137.098 Y143.386 E78.23603
G1 X136.98 Y143.898 E78.26294
G1 X136.98 Y156.208 E78.89347
G1 X137.106 Y156.593 E78.91422
G1 X137.343 Y156.987 E78.93777
G1 X137.47 Y157.122 E78.94726
G1 X137.906 Y157.422 E78.97437
G1 X138.418 Y157.54 E79.00128
G1 X161.688 Y157.54 E80.19319
G1 X162.073 Y157.414 E80.21394
G1 X162.467 Y157.177 E80.23749
G1 X162.602 Y157.05 E80.24698
G1 X162.902 Y156.614 E80.27409
G1 X163.02 Y156.102 E80.301
G1 X163.02 Y143.792 E80.93153
G1 X162.894 Y143.407 E80.95228
G1 X162.657 Y143.013 E80.97583
G1 X162.53 Y142.878 E80.98532
G1 X162.094 Y142.578 E81.01243
G1 X161.582 Y142.46 E81.03934
G1 X138.312 Y142.46 E82.23124
G1 X137.927 Y142.586 E82.25199
G1 X137.533 Y142.823 E82.27554
G1 X137.398 Y142.95 E82.28504
G0 F6000 X137.76 Y143.2
G1 F1200 X138.154 Y142.963 E82.30859
G1 X138.381 Y142.9 E82.32065
G1 X161.531 Y142.9 E83.50641
G1 X161.914 Y142.988 E83.52654
G1 X162.28 Y143.24 E83.5493
G1 X162.517 Y143.634 E83.57285
G1 X162.58 Y143.861 E83.58492
G1 X162.58 Y156.051 E84.2093
G1 X162.492 Y156.434 E84.22943
G1 X162.24 Y156.8 E84.25219
G1 X161.846 Y157.037 E84.27574
G1 X161.619 Y157.1 E84.2878
G1 X138.469 Y157.1 E85.47356
G1 X138.086 Y157.012 E85.49369
G1 X137.72 Y156.76 E85.51645
G1 X137.483 Y156.366 E85.54
G1 X137.42 Y156.139 E85.55207
G1 X137.42 Y143.949 E86.17645
G1 X137.508 Y143.566 E86.19658
G1 X137.76 Y143.2 E86.21934
G0 F6000 X138.339 Y143.875
G1 F1200 X138.46 Y143.78 E86.22722
G1 X161.48 Y143.78 E87.40631
G1 X161.605 Y143.819 E87.41302
G1 X161.7 Y143.94 E87.4209
G1 X161.7 Y156 E88.03862
G1 X161.661 Y156.125 E88.04533
G1 X161.54 Y156.22 E88.05321
G1 X138.52 Y156.22 E89.23231
G1 X138.395 Y156.181 E89.23901
G1 X138.3 Y156.06 E89.24689
G1 X138.3 Y144 E89.86461
G1 X138.339 Y143.875 E89.87132
G0 F6000 X138.067 Y143.529
G1 F1200 X138.381 Y143.34 E89.89009
G1 X161.48 Y143.34 E91.07324
G1 X161.736 Y143.399 E91.08669
G1 X161.951 Y143.547 E91.10006
G1 X162.14 Y143.861 E91.11883
G1 X162.14 Y156 E91.7406
G1 X162.081 Y156.256 E91.75406
G1 X161.933 Y156.471 E91.76743
G1 X161.619 Y156.66 E91.7862
G1 X138.52 Y156.66 E92.96934
G1 X138.264 Y156.601 E92.9828
G1 X138.049 Y156.453 E92.99617
G1 X137.86 Y156.139 E93.01494
G1 X137.86 Y144 E93.63671
G1 X137.919 Y143.744 E93.65016
G1 X138.067 Y143.529 E93.66353
